X:8
T:Vals efter J Bruun
R:vals
A:Sk{\aa}ne
Z:id:hn-vals-8
M:3/4
L:1/8
K:Em
d2 dB cA | B2 BG EF | G2 G2 A2 | Bc Bc B2 | d2 dB cA | B2 BG EF |
G2 GA FG | E4 z2 :||: F2 FG AF | G2 FE ^DE | F2 FG AF | G2 FE =D2 |
d2 dB cA | B2 BG EF | G2 GA FG | E4 z2 :|
<end>
<start>
